X: 38560
T: Sting In The Tale
R: reel
M: 4/4
K: Dmixolydian
|:F2FE FAFD-|DGGF GBAG|F2FE FAGF|GEEE2 BAG|
F2FE FAFD-|DGGF GBAG|Fddd2 BAG|FAD2 D2A2:|
|:F2EF2 AGF|G2FG2 BAG|F2FE FAGF|GEEE2 BAG|F2EF2 AGF-|
FGGF GBAG|1 Fddd2 BAG|FAD2 D2A2:|2 F2DG2EA2|AGEC D||

